X:577
T: "Nimm dich in Acht"
N: Z1257
O: Europa, Mitteleuropa, Deutschland, Nord - Deutschland
R: Liebes - Lied; +++ Phrasen geaendert (2.7.89)
M: 6/8
L: 1/8
K: A
E | A2B=c2A | e2ee3 | e3BB
E | A2B=c2A | e2ee2
E | A2B=c2A | e2ee3
e2=cc3 | e2BB2
B | E3G3 | A3z2
B | E3G3 | A3z2

